assets/symbols/mulberry/pencil.svg

<svg height="850.394" viewBox="0 0 850.394 850.394" width="850.394" xmlns="http://www.w3.org/2000/svg"><path d="m448.71 697.92-18.58 54.22h-28.42l-17.71-54.22z" fill="#ffeec8"/><path d="m430.13 752.14-14.55 42.46-13.87-42.46z" fill="#fff"/><path d="m448.71 128.73v569.19h-64.71v-569.19z" fill="#0b00ea"/><path d="m384 55.34h64.71v73.39h-64.71z" fill="#0b00ea"/><g fill="none"><g stroke="#000"><path d="m448.71 697.92h-64.71v-642.58h64.71v73.39zm0-569.19h-64.71m0 569.19 17.71 54.22 13.87 42.46 14.55-42.46 18.58-54.22" stroke-width="20.803"/><path d="m401.71 752.14h28.42" stroke-width="19"/></g><path d="m0 0h850.394v850.394h-850.394z"/></g></svg>

<svg xmlns="http://www.w3.org/2000/svg" width="850.394" height="850.394" viewBox="0 0 850.394 850.394" overflow="visible"><path fill="#ffeec8" d="M448.71 697.92l-18.58 54.22h-28.42L384 697.92z"/><path fill="#fff" d="M430.13 752.14l-14.55 42.46-13.87-42.46z"/><path fill="#0b00ea" d="M448.71 128.73v569.19H384V128.73z"/><path fill="#0b00ea" d="M384 55.34h64.71v73.39H384z"/><g fill="none" stroke="#000"><path stroke-width="20.803" d="M448.71 697.92H384V55.34h64.71v73.39zM448.71 128.73H384M384 697.92l17.71 54.22 13.87 42.46 14.55-42.46 18.58-54.22"/><path stroke-width="19" d="M401.71 752.14h28.42"/></g><path fill="none" d="M0 0h850.394v850.394H0z"/></svg>
